assets/images/master_card_logo.svg

<svg fill="none" height="48" viewBox="0 0 70 48" width="70" xmlns="http://www.w3.org/2000/svg"><g fill="#3ab0e2"><path d="m35.3945 34.7618c2.9344-2.5323 4.7951-6.3003 4.7951-10.5079s-1.8607-7.9756-4.7951-10.5079c2.3832-2.0566 5.4745-3.2981 8.8525-3.2981 7.5373 0 13.6475 6.1812 13.6475 13.806s-6.1102 13.806-13.6475 13.806c-3.378 0-6.4693-1.2415-8.8525-3.2981z"/><path clip-rule="evenodd" d="m26.5421 38.0599c3.3779 0 6.4693-1.2415 8.8524-3.2981 2.3832 2.0566 5.4745 3.2981 8.8525 3.2981 7.5373 0 13.6475-6.1812 13.6475-13.806s-6.1102-13.806-13.6475-13.806c-3.378 0-6.4693 1.2415-8.8525 3.2981-2.3831-2.0566-5.4745-3.2981-8.8524-3.2981-7.5374 0-13.6476 6.1812-13.6476 13.806s6.1102 13.806 13.6476 13.806zm8.8524-24.3139c-2.9343 2.5323-4.7949 6.3003-4.7949 10.5079s1.8606 7.9756 4.7949 10.5079c2.9344-2.5323 4.7951-6.3003 4.7951-10.5079s-1.8607-7.9756-4.7951-10.5079z" fill-rule="evenodd"/></g></svg>

<svg width="70" height="48" viewBox="0 0 70 48" fill="none" xmlns="http://www.w3.org/2000/svg">
<path d="M35.3945 34.7618C38.3289 32.2295 40.1896 28.4615 40.1896 24.2539C40.1896 20.0463 38.3289 16.2783 35.3945 13.746C37.7777 11.6894 40.869 10.4479 44.247 10.4479C51.7843 10.4479 57.8945 16.6291 57.8945 24.2539C57.8945 31.8787 51.7843 38.0599 44.247 38.0599C40.869 38.0599 37.7777 36.8184 35.3945 34.7618Z" fill="#3AB0E2"/>
<path fill-rule="evenodd" clip-rule="evenodd" d="M26.5421 38.0599C29.92 38.0599 33.0114 36.8184 35.3945 34.7618C37.7777 36.8184 40.869 38.0599 44.247 38.0599C51.7843 38.0599 57.8945 31.8787 57.8945 24.2539C57.8945 16.6291 51.7843 10.4479 44.247 10.4479C40.869 10.4479 37.7777 11.6894 35.3945 13.746C33.0114 11.6894 29.92 10.4479 26.5421 10.4479C19.0047 10.4479 12.8945 16.6291 12.8945 24.2539C12.8945 31.8787 19.0047 38.0599 26.5421 38.0599ZM35.3945 13.746C32.4602 16.2783 30.5996 20.0463 30.5996 24.2539C30.5996 28.4615 32.4602 32.2295 35.3945 34.7618C38.3289 32.2295 40.1896 28.4615 40.1896 24.2539C40.1896 20.0463 38.3289 16.2783 35.3945 13.746Z" fill="#3AB0E2"/>
</svg>
